X: 40295
T: Tolka, The
R: polka
M: 2/4
K: Adorian
|:A>B cg|de cA|B/c/B/A/ Gd|AB GE|
A>B cg|de cA|B/c/B/A/ Gd|A/B/A A2:|
|:d>e fa|ga fd|g/f/e/d/ Bd/c/|B/A/G B/c/d/c/|
A>B cg|de cA|B/c/B/A/ Gd|A/B/A A2:|
|:e>f gf|de- e/f/g|fd g/f/e/d/|Bd/c/ B/A/G|
A>B cg|de cA|B/c/B/A/ Gd|A/B/A A2:|

